icons/restaurant.svg

<svg
  width="24"
  height="24"
  viewBox="0 0 24 24"
  xmlns="http://www.w3.org/2000/svg"
  fill="none"
  stroke="currentColor"
  stroke-width="2"
  stroke-linecap="round"
  stroke-linejoin="round"
>
  <path d="M4 3h8l-1 9H5L4 3z" />
  <path d="M7 18h2v3H7v-3z" />
  <path d="M20 3v12h-5c-.023-3.681.184-7.406 5-12z" />
  <path d="M20 15v6h-1v-3" />
  <path d="M8 12v6" />
</svg>

<svg width="24" height="24" viewBox="0 0 24 24" fill="none" xmlns="http://www.w3.org/2000/svg">
<path d="M4 3H12L11 12H5L4 3Z" stroke="white" stroke-width="2" stroke-linecap="round" stroke-linejoin="round"/>
<path d="M7 18H9V21H7V18Z" stroke="white" stroke-width="2" stroke-linecap="round" stroke-linejoin="round"/>
<path d="M20 3V15H15C14.977 11.319 15.184 7.594 20 3Z" stroke="white" stroke-width="2" stroke-linecap="round" stroke-linejoin="round"/>
<path d="M20 15V21H19V18" stroke="white" stroke-width="2" stroke-linecap="round" stroke-linejoin="round"/>
<path d="M8 12V18" stroke="white" stroke-width="2" stroke-linecap="round" stroke-linejoin="round"/>
</svg>
